X: 1
T: A Fisherman's Song For Attracting Seals
M: 6/8
L: 1/8
R: jig
K: Emin
|: B2 d dBA | dBA dBA | B2 d dBA | e2d e3 :|
|: g2f g2a | e2d e3 | g2f g2a | e2d e3 |
aee gee | edd dBA | B2 d dBA | dBA dBA | B2 d dBA| | e2 d e3 :||
